X:0130
M:6/8
L:1/8
Q:3/8=108
K:A Minor
f/e/|g2g g^fe|dBG G2g|a2a aba |g2e e2
f   |gag g^fe|dBG GAB|cBA BA^G|A3  A2:|

